img/icons/icon_communicate.svg

<svg width="100" height="100" viewBox="0 0 100 100" fill="none" xmlns="http://www.w3.org/2000/svg">
<path d="M62.5002 16.6666V45.8333H21.5418L16.6668 50.7083V16.6666H62.5002ZM66.6668 8.33331H12.5002C10.2085 8.33331 8.3335 10.2083 8.3335 12.5V70.8333L25.0002 54.1666H66.6668C68.9585 54.1666 70.8335 52.2916 70.8335 50V12.5C70.8335 10.2083 68.9585 8.33331 66.6668 8.33331ZM87.5002 25H79.1668V62.5H25.0002V70.8333C25.0002 73.125 26.8752 75 29.1668 75H75.0002L91.6668 91.6667V29.1666C91.6668 26.875 89.7918 25 87.5002 25Z" fill="#3077C6"/>
</svg>

<svg xmlns="http://www.w3.org/2000/svg" width="100" height="100" fill="none"><path fill="#3077C6" d="M62.5 16.667v29.166H21.542l-4.875 4.875V16.667H62.5Zm4.167-8.334H12.5A4.179 4.179 0 0 0 8.334 12.5v58.333L25 54.167h41.667A4.179 4.179 0 0 0 70.833 50V12.5a4.179 4.179 0 0 0-4.166-4.167ZM87.5 25h-8.333v37.5H25v8.333A4.179 4.179 0 0 0 29.167 75H75l16.667 16.667v-62.5A4.179 4.179 0 0 0 87.5 25Z"/></svg>
